icons/3_Generic/Dollar.svg

<svg width="1024" height="1024" viewBox="0 0 1024 1024" fill="none" xmlns="http://www.w3.org/2000/svg">
<g clip-path="url(#clip0_3_470)">
<path d="M512 1024C794.77 1024 1024 794.77 1024 512C1024 229.23 794.77 0 512 0C229.23 0 0 229.23 0 512C0 794.77 229.23 1024 512 1024Z" fill="#8C72BD"/>
<path d="M574.84 496.288H527.71V318.248H553.89C603.05 318.248 642.91 358.098 642.91 407.268C642.91 415.948 649.94 422.978 658.62 422.978C667.3 422.978 674.33 415.948 674.33 407.268C674.24 340.788 620.37 286.918 553.89 286.828H527.71V239.698C527.71 231.018 520.68 223.988 512 223.988C503.32 223.988 496.29 231.018 496.29 239.698V286.828H470.11C403.59 286.828 349.67 340.748 349.67 407.268C349.67 473.788 403.59 527.708 470.11 527.708H496.29V705.748H449.16C400 705.748 360.14 665.898 360.14 616.728C360.14 608.048 353.11 601.018 344.43 601.018C335.75 601.018 328.72 608.048 328.72 616.728C328.81 683.208 382.68 737.078 449.16 737.168H496.29V784.298C496.29 792.978 503.32 800.008 512 800.008C520.68 800.008 527.71 792.978 527.71 784.298V737.168H574.84C641.36 737.168 695.28 683.248 695.28 616.728C695.28 550.208 641.36 496.288 574.84 496.288ZM470.11 496.288C420.95 496.288 381.09 456.438 381.09 407.268C381.09 358.098 420.94 318.248 470.11 318.248H496.29V496.288H470.11ZM574.84 705.738H527.71V527.698H574.84C624 527.698 663.86 567.548 663.86 616.718C663.86 665.888 624.01 705.738 574.84 705.738Z" fill="white"/>
</g>
<defs>
<clipPath id="clip0_3_470">
<rect width="1024" height="1024" fill="white"/>
</clipPath>
</defs>
</svg>

<svg xmlns="http://www.w3.org/2000/svg" width="1024" height="1024" fill="none">
   <g clip-path="url(#a)">
      <path fill="#8C72BD" d="M512 1024c282.77 0 512-229.23 512-512S794.77 0 512 0 0 229.23 0 512s229.23 512 512 512Z"/>
      <path fill="#fff" d="M574.84 496.288h-47.13v-178.04h26.18c49.16 0 89.02 39.85 89.02 89.02 0 8.68 7.03 15.71 15.71 15.71s15.71-7.03 15.71-15.71c-.09-66.48-53.96-120.35-120.44-120.44h-26.18v-47.13c0-8.68-7.03-15.71-15.71-15.71s-15.71 7.03-15.71 15.71v47.13h-26.18c-66.52 0-120.44 53.92-120.44 120.44s53.92 120.44 120.44 120.44h26.18v178.04h-47.13c-49.16 0-89.02-39.85-89.02-89.02 0-8.68-7.03-15.71-15.71-15.71s-15.71 7.03-15.71 15.71c.09 66.48 53.96 120.35 120.44 120.44h47.13v47.13c0 8.68 7.03 15.71 15.71 15.71s15.71-7.03 15.71-15.71v-47.13h47.13c66.52 0 120.44-53.92 120.44-120.44s-53.92-120.44-120.44-120.44Zm-104.73 0c-49.16 0-89.02-39.85-89.02-89.02 0-49.17 39.85-89.02 89.02-89.02h26.18v178.04h-26.18Zm104.73 209.45h-47.13v-178.04h47.13c49.16 0 89.02 39.85 89.02 89.02 0 49.17-39.85 89.02-89.02 89.02Z"/>
   </g>
   <defs>
      <clipPath id="a">
         <path fill="#fff" d="M0 0h1024v1024H0z"/>
      </clipPath>
   </defs>
</svg>
